X: 25769
T: Mary's Party
R: reel
M: 4/4
K: Dmajor
ceBe AFEF|A~E3 B~E3|cEBE A~E3|Bede cABa|
ecBc AFEF|A~E3 B~E3|cEdE cEBE|1 AEcE BEAe:|2 AEcE BEAE||
AEBE cEdE|cEAE cEAE|B~E3 d~E3|c~E3 A~E3|
AEBE cEdE|cEAE cEAE|B~E3 d~E3|1 cAB^G AFEc:|2 cAB^G Aaed||

